public/svg/footer/github.svg

<svg width="16" height="16" viewBox="0 0 16 16" fill="none" xmlns="http://www.w3.org/2000/svg">
<path d="M9.99921 14.6663V11.9997C10.092 11.1645 9.8525 10.3264 9.33254 9.66634C11.3325 9.66634 13.3325 8.33301 13.3325 5.99967C13.3859 5.16634 13.1525 4.34634 12.6659 3.66634C12.8525 2.89967 12.8525 2.09967 12.6659 1.33301C12.6659 1.33301 11.9992 1.33301 10.6659 2.33301C8.90588 1.99967 7.09254 1.99967 5.33254 2.33301C3.99921 1.33301 3.33254 1.33301 3.33254 1.33301C3.13254 2.09967 3.13254 2.89967 3.33254 3.66634C2.84713 4.3436 2.61153 5.1682 2.66588 5.99967C2.66588 8.33301 4.66588 9.66634 6.66588 9.66634C6.40588 9.99301 6.21254 10.3663 6.09921 10.7663C5.98588 11.1663 5.95254 11.5863 5.99921 11.9997V14.6663" stroke="#717680" stroke-width="1.33333" stroke-linecap="round" stroke-linejoin="round"/>
<path d="M6.00065 12.0003C2.99398 13.3337 2.66732 10.667 1.33398 10.667" stroke="#717680" stroke-width="1.33333" stroke-linecap="round" stroke-linejoin="round"/>
</svg>

<svg xmlns="http://www.w3.org/2000/svg" width="16" height="16" fill="none" viewBox="0 0 16 16"><path stroke="#717680" stroke-linecap="round" stroke-linejoin="round" stroke-width="1.333" d="M10 14.666V12a3.2 3.2 0 0 0-.667-2.334c2 0 4-1.333 4-3.666a3.6 3.6 0 0 0-.667-2.334 4.9 4.9 0 0 0 0-2.333s-.667 0-2 1a14.4 14.4 0 0 0-5.333 0c-1.334-1-2-1-2-1a4.6 4.6 0 0 0 0 2.333A3.6 3.6 0 0 0 2.666 6c0 2.333 2 3.666 4 3.666A3.14 3.14 0 0 0 5.999 12v2.666"/><path stroke="#717680" stroke-linecap="round" stroke-linejoin="round" stroke-width="1.333" d="M6 12c-3.006 1.334-3.333-1.333-4.666-1.333"/></svg>
